!!!OTL: ES STAK SIK EIN WUERMCHEN WEL UNTER DE EER
!!!ARE: Europa, Mitteleuropa, Deutschland, Westfalen, Soest
!!!SCT: E1565
!!!YEM: Copyright 1995, estate of Helmut Schaffrath.
**kern
*ICvox
*Ivox
!! Mixed meters:  3/8; 3/4; 2/4
*M3/8
*k[]
*C:
{8c
=1
8c
8c
8e
=2
8g
8g
8f
=3
8e
8e
8f
=4
4g
8r}
=5
{8c
8e
8c
=6
*M3/4
4f
8e
8g
8d
8d
=7
*M2/4
8c
8c
8e
8c
=8
*M3/4
4f
8e
8g
8d
8d
=9
4c
8r}
==
!!!AGN: Staende -, Bauern - Lied, Flachsbrechen, bei der Arbeit
!!!ONB: ESAC (Essen Associative Code) Database: ERK3
!!!AMT: irregular
!!!AIN: vox
!!!EED: Helmut Schaffrath
!!!EEV: 1.0
*-
